X:1
T:"Gradus ad Bartók"
T:https://sites.google.com/a/brophyprep.org/write-life/graham-armknecht/a-single-lamppost 
T:Chromatic Invention (1)
T:from Mikrokosmos 3
T:Bartók Béla, Sz. 107
C:Belá Bartók
%%score { 1 | 2 }
L:1/8
Q:1/4=71
M:4/4
K:C
V:1 treble nm="Piano" snm="Pno."
V:2 bass 
V:1
"^Lento,"!p! (A^G_ED =G3 ^F | =F^F=FE) z2 (A2- | A^G_ED =G3 ^F | =F3 ^F =FE)!mp! (A_B | %4
^de =Bc ^c3 =c | ^cdc^d) z!mf! (_ba_f- | _f_e _agd^c) (^f^e | =c3 B =e^d_BA) | %8
 z2 (=d"_dim."^c_AG) (=cB | z2 _GF) z (B_B) z |[M:3/4] z (_BA) z2!p! (A- |[M:4/4] A^G_ED =G3 ^F | %12
 =FE) z2!p! (A^G_ED | =G3 ^F =F^F=FE) | z2!pp! (A^G _E3 D | %15
 G3 ^F"_smorzando""^rallentando"!>(! =F3 ^F[Q:1/4=67] | %16
 F4[Q:1/4=48] E2)[Q:1/4=40]!ppp! z2!>)![Q:1/4=57] |] %17
V:2
 z4!p! (A,^G,_E,D, | =G,3 ^F, =F,^F,=F,E,) | (C3 =B, _G,F, _B,2- | B,A, _A,3 =A, ^G,^F,) | %4
!mp! (=G,_A,^CD =A,_B, =B,2- | B,_B, =B,C B,2 ^C) z |!mf! (_BA _F3 _E _AG |D^C) (^F^E =C3 =B, | %8
 E^D[K:bass]_B,A,) z2 (=D^C | _A,G,) (CB,_G,F,) ^F,2 |[M:3/4] (G,3 ^F, G,2 | %11
[M:4/4] ^G,) z!p! (A,_B,^DE =B,2- | B,C^CD) z2!p! (G,,_A,, | ^C,D, =A,,3 _B,, =B,,^A,, | %14
B,,C,) z2!pp! (=E,,F,, ^A,,2- | A,,B,, ^F,,2- F,,G,, ^G,,2- | G,,=G,, ^G,,4 ^A,,2) |] %17

